X:10  
T:Desert
C:G. Chabenat
I:Airs nouveaux pour danses anciennes
Q:1/4=75
M:3/8
K:G
BA GA BF |d6 |cB cd ec |B2 A4 |
BA GA BF |d2 G2 _e2 |^c2 =F2 _E2 |D6 :|
dB dB d^c |B^c de d=c |BA GF GA |BG D4 |
dB dB d^c |B^c e=c =fd |e^c dB =cA |B6 :|
